_includes/icons/ios-price-tag.svg

<svg fill="#666" height="50" viewBox="0 0 50 50" width="50" xmlns="http://www.w3.org/2000/svg"><path d="m28.625 2c-.339844.003906-.683594.019531-1.03125.0625-.691406.089844-1.449219.324219-2.03125.90625l-22.71875 22.71875c-1.121094 1.121094-1.121094 2.972656 0 4.09375l17.375 17.375c1.121094 1.121094 2.972656 1.121094 4.09375 0l22.71875-22.71875c.578125-.578125.816406-1.34375.90625-2.03125s.0625-1.367187.0625-2.03125v-14.875c0-1.921875-1.578125-3.5-3.5-3.5h-14.875c-.324219 0-.660156-.003906-1 0zm.03125 2c.292969-.007812.628906 0 .96875 0h14.875c.839844 0 1.5.660156 1.5 1.5v14.875c0 .695313-.003906 1.324219-.0625 1.78125s-.152344.683594-.3125.84375l-22.71875 22.75c-.355469.355469-.925781.355469-1.28125 0l-.125-.15625-17.25-17.21875c-.355469-.355469-.355469-.925781 0-1.28125l22.75-22.71875c.15625-.15625.414063-.253906.875-.3125.230469-.03125.488281-.054687.78125-.0625zm10.34375 3c-2.199219 0-4 1.800781-4 4s1.800781 4 4 4 4-1.800781 4-4-1.800781-4-4-4zm0 2c1.117188 0 2 .882813 2 2 0 1.117188-.882812 2-2 2-1.117187 0-2-.882812-2-2 0-1.117187.882813-2 2-2z"/></svg>

<svg xmlns="http://www.w3.org/2000/svg" viewBox="0 0 50 50" width="50" height="50" fill="#666"><path d="M 28.625 2 C 28.285156 2.003906 27.941406 2.019531 27.59375 2.0625 C 26.902344 2.152344 26.144531 2.386719 25.5625 2.96875 L 2.84375 25.6875 C 1.722656 26.808594 1.722656 28.660156 2.84375 29.78125 L 20.21875 47.15625 C 21.339844 48.277344 23.191406 48.277344 24.3125 47.15625 L 47.03125 24.4375 C 47.609375 23.859375 47.847656 23.09375 47.9375 22.40625 C 48.027344 21.71875 48 21.039063 48 20.375 L 48 5.5 C 48 3.578125 46.421875 2 44.5 2 L 29.625 2 C 29.300781 2 28.964844 1.996094 28.625 2 Z M 28.65625 4 C 28.949219 3.992188 29.285156 4 29.625 4 L 44.5 4 C 45.339844 4 46 4.660156 46 5.5 L 46 20.375 C 46 21.070313 45.996094 21.699219 45.9375 22.15625 C 45.878906 22.613281 45.785156 22.839844 45.625 23 L 22.90625 45.75 C 22.550781 46.105469 21.980469 46.105469 21.625 45.75 L 21.5 45.59375 L 4.25 28.375 C 3.894531 28.019531 3.894531 27.449219 4.25 27.09375 L 27 4.375 C 27.15625 4.21875 27.414063 4.121094 27.875 4.0625 C 28.105469 4.03125 28.363281 4.007813 28.65625 4 Z M 39 7 C 36.800781 7 35 8.800781 35 11 C 35 13.199219 36.800781 15 39 15 C 41.199219 15 43 13.199219 43 11 C 43 8.800781 41.199219 7 39 7 Z M 39 9 C 40.117188 9 41 9.882813 41 11 C 41 12.117188 40.117188 13 39 13 C 37.882813 13 37 12.117188 37 11 C 37 9.882813 37.882813 9 39 9 Z"/></svg>
